assets/Bank/Flat/bank_flat.svg

<svg width="32" height="32" viewBox="0 0 32 32" fill="none" xmlns="http://www.w3.org/2000/svg">
<path d="M26 10.0276H6V27.0276H26V10.0276Z" fill="#636363"/>
<path d="M3 10.0076V10.9776H4V26.7376H7V13.6912H8V26.7376H11V13.6912H21V27.0276H24V13.6912H25V26.9976H28V10.9776H29V10.0076L16 2.00757L3 10.0076Z" fill="#D3D3D3"/>
<path d="M3.84998 9.1375L14.64 2.3975C15.48 1.8675 16.56 1.8675 17.4 2.3975L28.19 9.1375V11.0275L16.69 3.8875C16.28 3.6375 15.77 3.6375 15.36 3.8875L3.85999 11.0275V9.1375H3.84998Z" fill="#E6E6E6"/>
<path d="M19.9853 11.0276C19.0711 12.2422 17.6173 13.0276 15.98 13.0276C14.3427 13.0276 12.8888 12.2422 11.9746 11.0276H3C2.45 11.0276 2 10.5776 2 10.0276C2 9.47759 2.45 9.02759 3 9.02759H11.0718C11.005 8.70135 10.97 8.36355 10.97 8.01757C10.97 5.25062 13.213 3.00757 15.98 3.00757C18.7469 3.00757 20.99 5.25062 20.99 8.01757C20.99 8.36355 20.9549 8.70135 20.8881 9.02759H29C29.55 9.02759 30 9.47759 30 10.0276C30 10.5776 29.55 11.0276 29 11.0276H19.9853ZM2 14.0276C2 13.4776 2.45 13.0276 3 13.0276H29C29.55 13.0276 30 13.4776 30 14.0276C30 14.5776 29.55 15.0276 29 15.0276H3C2.45 15.0276 2 14.5776 2 14.0276ZM2 29.0276H29.99V28.0976C29.99 27.5076 29.51 27.0276 28.92 27.0276H29V26.0976C29 25.5076 28.52 25.0276 27.93 25.0276H4.03998C3.44998 25.0276 2.96997 25.5076 2.96997 26.0976V27.0276H3.06999C2.47999 27.0276 2 27.5076 2 28.0976V29.0276Z" fill="#9B9B9B"/>
<path d="M17.21 9.53759C17.36 9.34759 17.44 9.12759 17.44 8.87759C17.44 8.59759 17.37 8.37759 17.24 8.20759C17.12 8.03759 16.96 7.91759 16.78 7.82759C16.69 7.78759 16.59 7.74759 16.47 7.70759C16.4409 7.69885 16.4109 7.69011 16.38 7.68112C16.305 7.65926 16.225 7.63593 16.14 7.60759C15.96 7.55759 15.82 7.51759 15.73 7.48759C15.64 7.45759 15.58 7.41759 15.52 7.36759C15.51 7.35759 15.5 7.34759 15.5 7.33759C15.47 7.29759 15.46 7.24759 15.46 7.19759C15.46 7.15759 15.46 7.09759 15.5 7.04759C15.55 6.98759 15.65 6.93759 15.87 6.93759C16.02 6.93759 16.16 6.95759 16.27 7.01759C16.35 7.04759 16.41 7.08759 16.47 7.14759C16.5 7.16759 16.53 7.19759 16.56 7.22759C16.72 7.38759 17 7.40759 17.18 7.25759C17.3 7.16759 17.35 7.04759 17.35 6.90759C17.35 6.79759 17.32 6.68759 17.24 6.59759C17.1 6.40759 16.89 6.26759 16.64 6.16759C16.6278 6.16351 16.6159 6.15943 16.6044 6.15543C16.5592 6.13984 16.5177 6.12555 16.47 6.11759V5.47759C16.47 5.23759 16.27 5.02759 16.02 5.02759H15.95C15.7 5.02759 15.5 5.23759 15.5 5.47759V6.07759C15.4 6.09759 15.3 6.13759 15.2 6.17759C14.97 6.27759 14.79 6.40759 14.66 6.58759C14.51 6.77759 14.44 6.98759 14.44 7.23759C14.44 7.51759 14.51 7.73759 14.65 7.90759C14.78 8.07759 14.94 8.19759 15.13 8.27759C15.2057 8.31543 15.2986 8.34755 15.3999 8.3826C15.4325 8.39387 15.466 8.40543 15.5 8.41759C15.59 8.44759 15.69 8.47759 15.8 8.50759C16.04 8.56759 16.23 8.63759 16.34 8.69759C16.43 8.74759 16.47 8.81759 16.47 8.90759V8.90759C16.47 8.98759 16.47 9.18759 16.04 9.20759C15.85 9.20759 15.68 9.16759 15.54 9.10759C15.535 9.10259 15.5275 9.10009 15.52 9.09759C15.5125 9.09509 15.505 9.09259 15.5 9.08759C15.38 9.02759 15.26 8.93759 15.15 8.81759C14.96 8.62759 14.73 8.59759 14.52 8.72759C14.37 8.83759 14.3 8.96759 14.3 9.12759C14.3 9.23759 14.32 9.32759 14.38 9.40759C14.56 9.64759 14.79 9.82759 15.07 9.92759C15.21 9.98759 15.35 10.0276 15.5 10.0476V10.5876C15.5 10.8276 15.7 11.0276 15.95 11.0276H16.02C16.27 11.0276 16.47 10.8276 16.47 10.5876V10.0076C16.53 9.99759 16.59 9.97759 16.65 9.94759C16.88 9.85759 17.07 9.71759 17.21 9.53759ZM13 25.0276H19V18.6676C19 18.3176 18.71 18.0276 18.36 18.0276H13.63C13.28 18.0276 13 18.3076 13 18.6576V25.0276Z" fill="#321B41"/>
</svg>

<svg xmlns="http://www.w3.org/2000/svg" width="32" height="32" fill="none"><path fill="#636363" d="M26 10.028H6v17h20v-17Z"/><path fill="#D3D3D3" d="M3 10.008v.97h1v15.76h3V13.69h1v13.047h3V13.69h10v13.337h3V13.69h1v13.307h3v-16.02h1v-.97l-13-8-13 8Z"/><path fill="#E6E6E6" d="m3.85 9.137 10.79-6.74c.84-.53 1.92-.53 2.76 0l10.79 6.74v1.89l-11.5-7.14c-.41-.25-.92-.25-1.33 0l-11.5 7.14v-1.89h-.01Z"/><path fill="#9B9B9B" d="M19.985 11.028a5.002 5.002 0 0 1-4.005 2 5.002 5.002 0 0 1-4.005-2H3c-.55 0-1-.45-1-1s.45-1 1-1h8.072a5.01 5.01 0 1 1 9.816 0H29c.55 0 1 .45 1 1s-.45 1-1 1h-9.015ZM2 14.028c0-.55.45-1 1-1h26c.55 0 1 .45 1 1s-.45 1-1 1H3c-.55 0-1-.45-1-1Zm0 15h27.99v-.93c0-.59-.48-1.07-1.07-1.07H29v-.93c0-.59-.48-1.07-1.07-1.07H4.04c-.59 0-1.07.48-1.07 1.07v.93h.1c-.59 0-1.07.48-1.07 1.07v.93Z"/><path fill="#321B41" d="M17.21 9.538c.15-.19.23-.41.23-.66 0-.28-.07-.5-.2-.67-.12-.17-.28-.29-.46-.38a3.39 3.39 0 0 0-.4-.147 6.423 6.423 0 0 1-.24-.073c-.18-.05-.32-.09-.41-.12a.61.61 0 0 1-.21-.12c-.01-.01-.02-.02-.02-.03a.23.23 0 0 1-.04-.14c0-.04 0-.1.04-.15.05-.06.15-.11.37-.11.15 0 .29.02.4.08.08.03.14.07.2.13.03.02.06.05.09.08.16.16.44.18.62.03.12-.09.17-.21.17-.35 0-.11-.03-.22-.11-.31-.14-.19-.35-.33-.6-.43a.812.812 0 0 0-.17-.05v-.64c0-.24-.2-.45-.45-.45h-.07c-.25 0-.45.21-.45.45v.6c-.1.02-.2.06-.3.1-.23.1-.41.23-.54.41-.15.19-.22.4-.22.65 0 .28.07.5.21.67.13.17.29.29.48.37.076.037.169.07.27.105a5.68 5.68 0 0 0 .4.125c.24.06.43.13.54.19.09.05.13.12.13.21 0 .08 0 .28-.43.3-.19 0-.36-.04-.5-.1-.005-.005-.012-.008-.02-.01a1.222 1.222 0 0 1-.37-.28c-.19-.19-.42-.22-.63-.09-.15.11-.22.24-.22.4 0 .11.02.2.08.28.18.24.41.42.69.52.14.06.28.1.43.12v.54c0 .24.2.44.45.44h.07c.25 0 .45-.2.45-.44v-.58c.06-.01.12-.03.18-.06.23-.09.42-.23.56-.41ZM13 25.028h6v-6.36c0-.35-.29-.64-.64-.64h-4.73c-.35 0-.63.28-.63.63v6.37Z"/></svg>
